X:1
T:Drowsy Maggie
C:Irish Trad
L:1/8
M:4/4
I:linebreak $
K:D
V:1 treble
V:1
|: E2"Em" BE dEBE | E2 BE "D"AFDF |"Em" E2 BE dEBE |1"G" BABc "D"dAFD :|2"G" BABc "D"dAFA ||$
"D" d2 fd "A"c2 ec |"D"   defg "A"afge |"D"  d2 fd "A"c2 ec |"G" BABc "D" dAFA |$
"D" d2 fd "A"c2 ec |"D"  deg "A"a2 fg | afge "D" fdec |"G" BABc "D"  "_End on long Em"dAFD |]
